X: 90
T: Missa Nunca fu\'e pena mayor / Credo
N: Derived from Rue1020c-Missa_Nunca_fue_pena_mayor-Credo.krn
C: Pierre de la Rue
%%abc-version 2.0
%%abcx-abcm2ps-target-version 5.9.1 (29 Sep 2008)
%%abc-creator hum2abc beta
%%abcx-conversion-date 2019/02/17 08:01:13
%%abc-edited-by Jesse Rodin
%%abc-edited-by Jesse Rodin; Chris Gage 10-25-2012
%%abcx-initial-encoding-date 2012/11/09/
%%humdrum-veritas 2410639272
%%humdrum-veritas-data 786393337
%%linebreak <none>
%%barnumbers 0
L: 1/4
M: 3/1
Q: 1/2=120
%%staves [1 2 3 4]
V: 1 clef=treble
V: 2 clef=treble-8
V: 3 clef=treble-8
V: 4 clef=bass
K: C
[V:1] z12 | 
[V:2] E4G8 | 
[V:3] e12- | 
[V:4] z4z4E,4 | 
[V:1] E4G8 | 
[V:2] A4B6c2- | 
[V:3] e12- | 
[V:4] A,,4E,4E,2E,2 | 
[V:1] A4B6c2- | 
[V:2] c2BAG6A2- | 
[V:3] e12- | 
[V:4] A,,4E,4z4 | 
[V:1] c2BAG4z2G2- | 
[V:2] A2GFE4z4 | 
[V:3] e12 | 
[V:4] z4z4E,4 | 
[V:1] G2A4GFE2G2- | 
[V:2] z4z4G4- | 
[V:3] c12- | 
[V:4] E,2F,4E,D,C,2E,2- | 
[V:1] GFEDC2c3BAG | 
[V:2] G2A4GFE4 | 
[V:3] c12 | 
[V:4] E,D,C,B,,A,,8 | 
[V:1] F4z2A2A2c2- | 
[V:2] D4z4z2A2 | 
[V:3] d8A4 | 
[V:4] z2D,2D,2F,4F,2 | 
[V:1] c2c2G8 | 
[V:2] A2c4c2G4- | 
[V:3] e12- | 
[V:4] C,8z2E,2- | 
[V:1] z2B4d4A2- | 
[V:2] G4z2B2d3c | 
[V:3] e4d8 | 
[V:4] E,2G,4D,4F,2- | 
[V:1] A2c4BAG2A2 | 
[V:2] A8c3B | 
[V:3] c8c3d | 
[V:4] F,2E,D,C,2D,2E,2F,2 | 
[V:1] B2c2B2A4^G2 | 
[V:2] G2A2B2c2B4 | 
[V:3] e12 | 
[V:4] E,12 | 
[V:1] A6GFG4 | 
[V:2] A4z2A2B2c2 | 
[V:3] z12 | 
[V:4] F,8E,4 | 
[V:1] F4z2F2G2A2 | 
[V:2] d8c4 | 
[V:3] z12 | 
[V:4] D,4z2D,2E,2F,2 | 
[V:1] _B2G2A4z2G2 | 
[V:2] z2B2c2d2e4 | 
[V:3] z12 | 
[V:4] G,4F,4z2E,2 | 
[V:1] A2B2c2A2B2G2 | 
[V:2] d4A2c2B2E2 | 
[V:3] z4z2c2d2e2 | 
[V:4] F,2G,2A,4G,4 | 
[V:1] A2B2c8 | 
[V:2] c8A4 | 
[V:3] f12- | 
[V:4] F,6F,2F,4 | 
[V:1] d4d4c4- | 
[V:2] _B8A4 | 
[V:3] f12 | 
[V:4] _B,,8F,3C, | 
[V:1] c2BAG2c3de2 | 
[V:2] c6BAG4 | 
[V:3] e8c4 | 
[V:4] C,8E,4 | 
[V:1] f4e2e4d2 | 
[V:2] A12- | 
[V:3] d4e4f4 | 
[V:4] D,4C,4D,4 | 
[V:1] e2c4BAB4 | 
[V:2] A8G4 | 
[V:3] e4z2c2d2e2 | 
[V:4] A,,8z4 | 
[V:1] A2D2E3GF4 | 
[V:2] A12 | 
[V:3] f4e2e4d2 | 
[V:4] D,4C,4D,4 | 
[V:1] EFGAB2c3de2 | 
[V:2] z12 | 
[V:3] e8c4 | 
[V:4] A,,2A,2G,2A,3G,/F,/E,2 | 
[V:1] d2cB2AA4^G2 | 
[V:2] z12 | 
[V:3] d4B2c2B4 | 
[V:4] F,2G,4A,2E,4 | 
[V:1] A12 | 
[V:2] z4z2e2f3e | 
[V:3] A12- | 
[V:4] A,,2D,4C,2D,3E, | 
[V:1] z12 | 
[V:2] d2c2dcBAB4 | 
[V:3] A8G4 | 
[V:4] F,G,A,2D,4z2E,2 | 
[V:1] z12 | 
[V:2] A4z2e2f3e | 
[V:3] A12- | 
[V:4] F,3E,D,2C,2D,2A,,2 | 
[V:1] z2e2f3ed2c2 | 
[V:2] d2c2d2A2z2e2 | 
[V:3] A12- | 
[V:4] D,2A,,2D,3C,D,2A,,2 | 
[V:1] d2A2z2A2A3G | 
[V:2] f3ed2c2d2A2- | 
[V:3] A12- | 
[V:4] D,2D,2F,3E,D,2C,2 | 
[V:1] F2D2E2E2D4 | 
[V:2] A2d4^c2d4- | 
[V:3] A12 | 
[V:4] D,4A,,4D,4 | 
[V:1] z4z4D4 | 
[V:2] d2cBA4z4 | 
[V:3] z12 | 
[V:4] z2D,4F,4G,2 | 
[V:1] F4G4G4 | 
[V:2] z12 | 
[V:3] z12 | 
[V:4] A,4_B,8 | 
[V:1] A4z2A4A2 | 
[V:2] z2A4c4d2 | 
[V:3] z12 | 
[V:4] A,3G,F,3E,F,2D,2 | 
[V:1] c4d4d4 | 
[V:2] e4f8 | 
[V:3] z12 | 
[V:4] A,4D,8 | 
[V:1] e2e2e2c3de2 | 
[V:2] e2c3de2A4 | 
[V:3] c12- | 
[V:4] C,4A,,4z2A,2 | 
[V:1] A4z2e2f4 | 
[V:2] F3GA8 | 
[V:3] c8d4 | 
[V:4] A,2F,3G,A,2D,4 | 
[V:1] e8e4 | 
[V:2] A4A4z4 | 
[V:3] c8B4 | 
[V:4] z4z4E,4 | 
[V:1] c6B2A4 | 
[V:2] A4c4d4 | 
[V:3] A12 | 
[V:4] F,8F,4 | 
[V:1] G2c4BAB2c2 | 
[V:2] e8e4 | 
[V:3] z12 | 
[V:4] E,2A,4G,F,G,2A,2 | 
[V:1] A3Bc2d4^c2 | 
[V:2] f6ede2f2 | 
[V:3] A8A4 | 
[V:4] D,4z4z4 | 
[V:1] d6cBc3d | 
[V:2] d3ef2g4^f2 | 
[V:3] B6AGA4 | 
[V:4] z12 | 
[V:1] B6AGA4 | 
[V:2] g4d4z4 | 
[V:3] G6^FE^F4 | 
[V:4] z12 | 
[V:1] B2G4^FEF4 | 
[V:2] G4G2A4A2 | 
[V:3] G4z4z4 | 
[V:4] E,6D,C,D,4 | 
[V:1] G4z4z4 | 
[V:2] G4G2c4d2 | 
[V:3] G4G2A4A2 | 
[V:4] E,2C,2E,2F,4F,2 | 
[V:1] G4G2A4A2 | 
[V:2] e4z4A4 | 
[V:3] G4G2c4d2 | 
[V:4] E,4E,2F,4F,2 | 
[V:1] G4G2c4d2 | 
[V:2] B4c4A3B | 
[V:3] e4e2f4f2 | 
[V:4] E,4z4z4 | 
[V:1] e4e2f4f2 | 
[V:2] cdefg2a4a2 | 
[V:3] e6dcd4 | 
[V:4] z12 | 
[V:1] e3dB2A2c3B | 
[V:2] g2e3dcBA4 | 
[V:3] e4z4z4 | 
[V:4] E,4E,2F,4F,2 | 
[V:1] G4z4B2cd | 
[V:2] B2cde2d4c2- | 
[V:3] g8g4 | 
[V:4] E,6F,2G,2C,2 | 
[V:1] e2d4c4B2 | 
[V:2] c2B2c4d4 | 
[V:3] g6g2g4 | 
[V:4] G,4z4G,4 | 
[V:1] c2Bcd4B2cd | 
[V:2] c2d2B2cde3d | 
[V:3] g8g4 | 
[V:4] C,2G,4G,4E,2 | 
[V:1] e2d4c4B2 | 
[V:2] c2B2c4g4 | 
[V:3] g3fe2c2d4 | 
[V:4] E,2F,G,A,4G,4 | 
[V:1] c4z2G4G2 | 
[V:2] z2g4g2e2e2 | 
[V:3] c12 | 
[V:4] C,12 | 
[V:1] A3GF2E2D4 | 
[V:2] f3ed2c2B2cd | 
[V:3] z12 | 
[V:4] z12 | 
[V:1] C2B,2C4D4 | 
[V:2] e2d4c4B2 | 
[V:3] z12 | 
[V:4] z4z4z2G,2 | 
[V:1] C4z2G2A2c2 | 
[V:2] c4z4z4 | 
[V:3] z12 | 
[V:4] A,2C2B,2C4B,A, | 
[V:1] B2c4BAG2A2 | 
[V:2] z12 | 
[V:3] z12 | 
[V:4] G,2A,2F,4E,2F,2 | 
[V:1] F2G3FE4D2 | 
[V:2] z12 | 
[V:3] z12 | 
[V:4] D,2E,2G,2A,2F,3E, | 
[V:1] E4z4z4 | 
[V:2] z4z2e2f2e2 | 
[V:3] c12- | 
[V:4] C,2E,2F,2E,2A,3G, | 
[V:1] z12 | 
[V:2] a3gfee4d2 | 
[V:3] c8A4 | 
[V:4] F,2E,2A,3G,F,4 | 
[V:1] G4G2G2G2G2 | 
[V:2] e8e4 | 
[V:3] B8c4- | 
[V:4] E,4E,4C,2C,2 | 
[V:1] A6A2A4 | 
[V:2] c2c2f2f2f4 | 
[V:3] c12 | 
[V:4] F,2F,2F,4F,4 | 
[V:1] G4F4F4 | 
[V:2] d3dd2d2c4- | 
[V:3] B4A8 | 
[V:4] G,4D,2D,2F,4 | 
[V:1] E3FGAB4A2 | 
[V:2] c4B4z4 | 
[V:3] G8z4 | 
[V:4] C,4z2G,4F,2 | 
[V:1] B3dc4B4 | 
[V:2] z2B4A2B2e2- | 
[V:3] z2G4F2G4 | 
[V:4] G,2G,2A,4E,2G,2 | 
[V:1] z4z2B4A2 | 
[V:2] e2d2e2B2c4 | 
[V:3] A4G4A4 | 
[V:4] F,4E,2G,4F,2 | 
[V:1] B2B2c4B4 | 
[V:2] B2G2z2cdefg2 | 
[V:3] z2G4F2G4 | 
[V:4] G,2G,2A,4E,4 | 
[V:1] z2c2B2G2A4 | 
[V:2] e2f4e4d2 | 
[V:3] A4G2E2F4 | 
[V:4] z12 | 
[V:1] G4A4G4 | 
[V:2] e4z2d2e3d | 
[V:3] E4z4z4 | 
[V:4] z2E,2F,2F,2E,4 | 
[V:1] A4G2E2F4 | 
[V:2] cBd4c4B2 | 
[V:3] z12 | 
[V:4] z2F,2E,2C,2D,4 | 
[V:1] !fermata!E12 | 
[V:2] !fermata!c12 | 
[V:3] !fermata!A12 | 
[V:4] !fermata!A,,12 | 
[V:1] z4!fermata!E4!fermata!F4 | 
[V:2] z4!fermata!c4!fermata!c4 | 
[V:3] z4!fermata!G4!fermata!A4 | 
[V:4] z4!fermata!C,4!fermata!F,4 | 
[V:1] !fermata!E4!fermata!D4!fermata!D4 | 
[V:2] !fermata!c4!fermata!A4!fermata!A4 | 
[V:3] !fermata!G4!fermata!F4!fermata!F4 | 
[V:4] !fermata!C,4!fermata!D,4!fermata!D,4 | 
[V:1] C12 ||  
[V:2] A12 ||  
[V:3] E12 ||  
[V:4] A,,12 ||  
[V:1]  [K:C] [K:clef=treble][M:2/1]G4G2G2- | 
[V:2]  [K:C] [K:clef=treble-8][M:2/1]z4c4 | 
[V:3]  [K:C] [K:clef=treble-8][M:2/1]z8 | 
[V:4]  [K:C] [K:clef=bass][M:2/1]z8 | 
[V:1] G2G2A4 | 
[V:2] c2c4c2 | 
[V:3] z8 | 
[V:4] z8 | 
[V:1] B4c4- | 
[V:2] d4e4 | 
[V:3] z8 | 
[V:4] z8 | 
[V:1] c2BAG4- | 
[V:2] f4e4 | 
[V:3] z8 | 
[V:4] z4C,4 | 
[V:1] G4G3A | 
[V:2] c4e4 | 
[V:3] z8 | 
[V:4] C,2C,4C,2 | 
[V:1] B2A4^G2 | 
[V:2] d3cB4 | 
[V:3] z8 | 
[V:4] D,4E,4 | 
[V:1] A8 | 
[V:2] A4c3d | 
[V:3] z8 | 
[V:4] F,8 | 
[V:1] G4F4 | 
[V:2] e3dBB3 | 
[V:3] z8 | 
[V:4] E,4D,4 | 
[V:1] E4G4 | 
[V:2] c4e4 | 
[V:3] c4c4- | 
[V:4] C,4C,4 | 
[V:1] A6A2 | 
[V:2] f6f2 | 
[V:3] c2c2c4- | 
[V:4] F,6F,2 | 
[V:1] A4A4 | 
[V:2] f4f4 | 
[V:3] c4c4 | 
[V:4] F,4F,4 | 
[V:1] G8 | 
[V:2] e8 | 
[V:3] c8 | 
[V:4] C,8 | 
[V:1] E8 | 
[V:2] c8 | 
[V:3] G8 | 
[V:4] C,8 | 
[V:1] E4E2E2- | 
[V:2] B4B2B2- | 
[V:3] G6G2 | 
[V:4] E,4E,2E,2- | 
[V:1] E2E2G4 | 
[V:2] B2B2e4 | 
[V:3] G4G4 | 
[V:4] E,2E,2E,4 | 
[V:1] F4E2F2 | 
[V:2] A3Bc2d2 | 
[V:3] A8 | 
[V:4] D,4C,2F,2 | 
[V:1] G2FED4 | 
[V:2] G8 | 
[V:3] B8 | 
[V:4] E,3F,G,4 | 
[V:1] C8 | 
[V:2] z4c4 | 
[V:3] c6d2 | 
[V:4] A,8 | 
[V:1] z4G4 | 
[V:2] c2c2B4- | 
[V:3] e8- | 
[V:4] E,8- | 
[V:1] G2G2G4 | 
[V:2] B8 | 
[V:3] e8 | 
[V:4] E,8 | 
[V:1] A8 | 
[V:2] A3Bc2d2- | 
[V:3] z8 | 
[V:4] F,4F,2F,2 | 
[V:1] G4F3G | 
[V:2] d2^c2d4- | 
[V:3] z8 | 
[V:4] E,4D,3E, | 
[V:1] A2B4c2- | 
[V:2] d4e4- | 
[V:3] z8 | 
[V:4] F,2G,4A,2- | 
[V:1] c2BAG2A2 | 
[V:2] e4e4 | 
[V:3] z8 | 
[V:4] A,2G,F,E,4 | 
[V:1] B4E4 | 
[V:2] z2B4c2- | 
[V:3] z8 | 
[V:4] E,4E,4 | 
[V:1] z2B2B2c2- | 
[V:2] c2BAG2A2- | 
[V:3] e8 | 
[V:4] z8 | 
[V:1] c2BAG2A2 | 
[V:2] A2GFE2F2 | 
[V:3] e4e4 | 
[V:4] z8 | 
[V:1] B2c2d4- | 
[V:2] G2A2B2c2 | 
[V:3] d8 | 
[V:4] G,6F,E, | 
[V:1] d2cBA4 | 
[V:2] d4z4 | 
[V:3] d8 | 
[V:4] D,2G,4^F,2 | 
[V:1] G4d4 | 
[V:2] B4B2B2- | 
[V:3] d8 | 
[V:4] G,8 | 
[V:1] d4d4 | 
[V:2] B2B2B4 | 
[V:3] g8 | 
[V:4] G,2G,3F,E,D, | 
[V:1] e4edcB | 
[V:2] c8 | 
[V:3] g8 | 
[V:4] C,4C,4 | 
[V:1] A4c4 | 
[V:2] c6BA | 
[V:3] f8 | 
[V:4] F,4F,4 | 
[V:1] c4c4 | 
[V:2] A4A4 | 
[V:3] f4f4 | 
[V:4] F,4F,4- | 
[V:1] c4c4 | 
[V:2] A4A4 | 
[V:3] f4f4 | 
[V:4] F,4F,4 | 
[V:1] d4f4 | 
[V:2] A4d4 | 
[V:3] f8 | 
[V:4] D,8 | 
[V:1] e6dc | 
[V:2] G2c4BA | 
[V:3] g8- | 
[V:4] C,8 | 
[V:1] B2d4c2 | 
[V:2] G3AB2c2 | 
[V:3] g8 | 
[V:4] z8 | 
[V:1] B2d4cB | 
[V:2] G3AB2c2 | 
[V:3] z4z2g2- | 
[V:4] z8 | 
[V:1] A3Bcde2- | 
[V:2] d4G4 | 
[V:3] g2f2e2g2- | 
[V:4] z4C,3D, | 
[V:1] e2c4B2 | 
[V:2] z8 | 
[V:3] g2fed4 | 
[V:4] E,2F,2G,4 | 
[V:1] c8 | 
[V:2] z8 | 
[V:3] c4z2c2 | 
[V:4] C,8 | 
[V:1] z8 | 
[V:2] z8 | 
[V:3] B4A4 | 
[V:4] z4F,4 | 
[V:1] z8 | 
[V:2] z8 | 
[V:3] G4d4 | 
[V:4] E,4D,4 | 
[V:1] z8 | 
[V:2] z8 | 
[V:3] e4d2e2- | 
[V:4] C,4G,4 | 
[V:1] z8 | 
[V:2] z8 | 
[V:3] e2dcB2c2- | 
[V:4] A,4G,2A,2- | 
[V:1] z4c4 | 
[V:2] z8 | 
[V:3] cBAGA4 | 
[V:4] A,2G,4^F,2 | 
[V:1] B4A4 | 
[V:2] z4f4 | 
[V:3] G4z4 | 
[V:4] G,4z4 | 
[V:1] G4d4 | 
[V:2] e4d4 | 
[V:3] z8 | 
[V:4] z8 | 
[V:1] e4d2e2- | 
[V:2] c4g4 | 
[V:3] z8 | 
[V:4] z8 | 
[V:1] e2dcB2c2 | 
[V:2] a4g2a2- | 
[V:3] z8 | 
[V:4] z8 | 
[V:1] A2c4B2 | 
[V:2] a2a2e2g2- | 
[V:3] z4z2e2- | 
[V:4] z2A,4G,2 | 
[V:1] G2B4A2 | 
[V:2] g2g2d2f2- | 
[V:3] e2d2B2d2- | 
[V:4] E,2G,4F,2 | 
[V:1] F2A4G2 | 
[V:2] f2f2c2e2 | 
[V:3] d2c2A2c2- | 
[V:4] D,2F,4E,2 | 
[V:1] E3FG2A2- | 
[V:2] g3fedf2- | 
[V:3] c2B2GABc | 
[V:4] C,2G,4F,2 | 
[V:1] A2G4^F2 | 
[V:2] fec2d4 | 
[V:3] d2G2A4 | 
[V:4] D,2E,2D,4 | 
[V:1] G4z2G2- | 
[V:2] B8 | 
[V:3] z2G4FE | 
[V:4] z4E,4 | 
[V:1] G2FEG3A | 
[V:2] z4e4 | 
[V:3] G3AB2E2 | 
[V:4] E,4E,4 | 
[V:1] B2E2z2B2- | 
[V:2] e2e4e2 | 
[V:3] z2B4G2- | 
[V:4] E,8 | 
[V:1] B2G3AB2 | 
[V:2] e6e2 | 
[V:3] GAB2c2e2- | 
[V:4] E,4E,4 | 
[V:1] c2A4^G2 | 
[V:2] e4e4 | 
[V:3] e2dcB4 | 
[V:4] A,,4E,4 | 
[V:1] A8 | 
[V:2] c2f4ed | 
[V:3] A8 | 
[V:4] F,4z2F,2- | 
[V:1] z8 | 
[V:2] f3ga4 | 
[V:3] z4z2c2- | 
[V:4] F,2E,D,F,3G, | 
[V:1] z2c4BA | 
[V:2] e8 | 
[V:3] c2BAc3d | 
[V:4] A,4A,,4 | 
[V:1] c3de4 | 
[V:2] z2e2e2c2- | 
[V:3] e4A4 | 
[V:4] z4A,,4- | 
[V:1] A4z2e2 | 
[V:2] c2A2A4- | 
[V:3] z2e2e2c2- | 
[V:4] A,,4A,,4 | 
[V:1] e2c4A2 | 
[V:2] A2GFE4 | 
[V:3] c2A2A4 | 
[V:4] A,,4A,,4 | 
[V:1] A2d2d2f2- | 
[V:2] z4A4 | 
[V:3] f8- | 
[V:4] D,8- | 
[V:1] fedcd4 | 
[V:2] A4A4 | 
[V:3] f8 | 
[V:4] D,8 | 
[V:1] e8 | 
[V:2] c6BA | 
[V:3] e6d2 | 
[V:4] A,,8 | 
[V:1] z8 | 
[V:2] G8 | 
[V:3] c4B4 | 
[V:4] E,8 | 
[V:1] z8 | 
[V:2] A3GABc2- | 
[V:3] A2d2c2f2- | 
[V:4] F,8- | 
[V:1] z8 | 
[V:2] cBAGA4 | 
[V:3] fedcd4 | 
[V:4] F,8 | 
[V:1] z8 | 
[V:2] z4B4 | 
[V:3] e8- | 
[V:4] E,6F,G, | 
[V:1] z4B4 | 
[V:2] c4B4 | 
[V:3] e8- | 
[V:4] A,4E,4 | 
[V:1] c4B4 | 
[V:2] A4G4 | 
[V:3] e8 | 
[V:4] z8 | 
[V:1] A4G4 | 
[V:2] c6B2 | 
[V:3] e8- | 
[V:4] z8 | 
[V:1] c4c2B2- | 
[V:2] A6G2 | 
[V:3] e8- | 
[V:4] z8 | 
[V:1] B2A4^G2 | 
[V:2] A4B4 | 
[V:3] e8 | 
[V:4] z4E,4 | 
[V:1] A4A4 | 
[V:2] A4f4 | 
[V:3] c8 | 
[V:4] F,4F,4 | 
[V:1] A4A4 | 
[V:2] f4f4 | 
[V:3] c4c4 | 
[V:4] F,8 | 
[V:1] A4A4 | 
[V:2] f4F4 | 
[V:3] c4c4 | 
[V:4] F,8 | 
[V:1] G4G4 | 
[V:2] G4G4 | 
[V:3] c4c4 | 
[V:4] E,4E,4 | 
[V:1] F8 | 
[V:2] A8 | 
[V:3] d4d4- | 
[V:4] D,8 | 
[V:1] F6F2 | 
[V:2] _B6_B2 | 
[V:3] d4d4 | 
[V:4] _B,,6B,,2 | 
[V:1] F4F4 | 
[V:2] _B4_B4 | 
[V:3] d4d4 | 
[V:4] _B,,4B,,4 | 
[V:1] F8 | 
[V:2] A8 | 
[V:3] d8 | 
[V:4] D,8 | 
[V:1] E8 | 
[V:2] A4z2A2 | 
[V:3] c8- | 
[V:4] A,,8 | 
[V:1] z4z2E2 | 
[V:2] e2e2e4- | 
[V:3] c8 | 
[V:4] z2A,,2E,2E,2 | 
[V:1] G2G2G2G2 | 
[V:2] e4e4 | 
[V:3] B8- | 
[V:4] E,4E,4 | 
[V:1] G8 | 
[V:2] e8 | 
[V:3] B8 | 
[V:4] E,8 | 
[V:1] A4A4- | 
[V:2] e8 | 
[V:3] c8- | 
[V:4] A,,4A,4- | 
[V:1] A2A2A4 | 
[V:2] z4f4 | 
[V:3] c8- | 
[V:4] A,2A,2A,4 | 
[V:1] A4A4 | 
[V:2] f2f4f2- | 
[V:3] c8 | 
[V:4] F,6E,D, | 
[V:1] F3GA2B2- | 
[V:2] fga4g2- | 
[V:3] d8 | 
[V:4] D,3E,F,2G,2 | 
[V:1] B2c3BG2 | 
[V:2] gfedc4 | 
[V:3] e8 | 
[V:4] G,2A,3G,E,2 | 
[V:1] A4d4 | 
[V:2] z8 | 
[V:3] f8- | 
[V:4] D,8- | 
[V:1] d2d4d2 | 
[V:2] z8 | 
[V:3] f8 | 
[V:4] D,8 | 
[V:1] e4d2c2 | 
[V:2] g4g2g2- | 
[V:3] e8- | 
[V:4] z8 | 
[V:1] B4A4 | 
[V:2] g2g2a2A2 | 
[V:3] e8 | 
[V:4] z4A,4 | 
[V:1] z8 | 
[V:2] B2A2B2c2 | 
[V:3] z4e4 | 
[V:4] G,2F,2E,4 | 
[V:1] z8 | 
[V:2] d4z4 | 
[V:3] f4e4 | 
[V:4] D,4A,4 | 
[V:1] z8 | 
[V:2] z8 | 
[V:3] d2d2c4 | 
[V:4] B,4A,4 | 
[V:1] z8 | 
[V:2] z8 | 
[V:3] B2G2A4 | 
[V:4] G,2G,2F,3E, | 
[V:1] e4f4 | 
[V:2] z8 | 
[V:3] G2c4B2 | 
[V:4] C,2E,2D,2D,2 | 
[V:1] e4d4 | 
[V:2] e4f4 | 
[V:3] c4z4 | 
[V:4] C,4z4 | 
[V:1] c4B4 | 
[V:2] e2c2d2e2- | 
[V:3] z8 | 
[V:4] z8 | 
[V:1] GABcA2G2- | 
[V:2] efg2f2g2 | 
[V:3] z8 | 
[V:4] z8 | 
[V:1] G2c4B2 | 
[V:2] c4d4 | 
[V:3] z8 | 
[V:4] z8 | 
[V:1] c4z4 | 
[V:2] c8 | 
[V:3] z8 | 
[V:4] z8 | 
[V:1] c8 | 
[V:2] g8 | 
[V:3] e8 | 
[V:4] C8 | 
[V:1] c4c4 | 
[V:2] g4g4 | 
[V:3] e4e4 | 
[V:4] C4C4 | 
[V:1] c4c4 | 
[V:2] g4g4 | 
[V:3] e4e4 | 
[V:4] C4C4 | 
[V:1] B8 | 
[V:2] g8 | 
[V:3] d8 | 
[V:4] G,8 | 
[V:1] B4c4 | 
[V:2] g4e2c2 | 
[V:3] d4c4 | 
[V:4] G,4A,4 | 
[V:1] A8 | 
[V:2] d8 | 
[V:3] f8 | 
[V:4] D,8 | 
[V:1] G4z2E2 | 
[V:2] z2B2B2c2- | 
[V:3] e8- | 
[V:4] E,8 | 
[V:1] G4G4 | 
[V:2] c2c2c4- | 
[V:3] e8 | 
[V:4] z4C,4 | 
[V:1] G8 | 
[V:2] c4G4 | 
[V:3] z4c4 | 
[V:4] C,4C,4 | 
[V:1] E4E2G2- | 
[V:2] z2c4d2 | 
[V:3] c4c4 | 
[V:4] C,4C,4- | 
[V:1] G2F2E4 | 
[V:2] e2f2g4 | 
[V:3] c8 | 
[V:4] C,2D,2E,2F,2 | 
[V:1] D4z2G2- | 
[V:2] g8 | 
[V:3] B6B2 | 
[V:4] G,8 | 
[V:1] GABcd2e2 | 
[V:2] z2G3ABc | 
[V:3] B4B4 | 
[V:4] G,8- | 
[V:1] d2G2z2G2- | 
[V:2] d2e2d2G2 | 
[V:3] B4B4 | 
[V:4] G,8 | 
[V:1] G2FED4- | 
[V:2] z2g4fe | 
[V:3] B3cd2d2 | 
[V:4] z2G,2G,4 | 
[V:1] D4D4 | 
[V:2] d2G2g4 | 
[V:3] dcBAB4 | 
[V:4] G,8 | 
[V:1] [M:3/1]E8G4 | 
[V:2] [M:3/1]G8G4 | 
[V:3] [M:3/1]c8e4 | 
[V:4] [M:3/1]C,12 | 
[V:1] A4B8 | 
[V:2] F4G4g4 | 
[V:3] f4d8 | 
[V:4] z4z4G,4 | 
[V:1] c8c4 | 
[V:2] f4e4f4 | 
[V:3] c8c4 | 
[V:4] A,8A,4 | 
[V:1] B4d6B2 | 
[V:2] g8g4 | 
[V:3] d6c2B4 | 
[V:4] G,8G,4 | 
[V:1] c6B2A2G2 | 
[V:2] c8c4 | 
[V:3] A4G8 | 
[V:4] F,4E,8 | 
[V:1] F8E4 | 
[V:2] d8z4 | 
[V:3] A12- | 
[V:4] D,8C,4 | 
[V:1] D8C4 | 
[V:2] d4f4e4 | 
[V:3] A12 | 
[V:4] D,4A,,8 | 
[V:1] D4F6G2 | 
[V:2] d8d4 | 
[V:3] _B4A6G2 | 
[V:4] D,8B,,4 | 
[V:1] A2B2c6d2 | 
[V:2] e4c8 | 
[V:3] G8^F4 | 
[V:4] C,4A,,8 | 
[V:1] B4A6G2 | 
[V:2] g4f4g4 | 
[V:3] G4A2B2c2d2 | 
[V:4] G,,4D,4E,4- | 
[V:1] G8^F4 | 
[V:2] c4d8 | 
[V:3] G4A8 | 
[V:4] E,4D,8 | 
[V:1] G12 |]  
[V:2] d12 |]  
[V:3] G12 |]  
[V:4] G,,12 |]  



